X: 17
T: Whistle for it
%%VWML:Button1809-2292a-p9-0
F:http://www.vwml.org/record/Button1809/2292a/p9
B: "Twenty Four Country Dances with Figures for the Year 1809", Button & Whitaker, p.9 #1
F: http://www.vwml.org/browse/browse-collections-dance-tune-books/browse-button1809
Z: 2014 John Chambers <jc:trillian.mit.edu>
M: 6/8
L: 1/8
K: C
% - - - - - - - - - - - - - - - - - - - - - - - - - - - - -
|:\
g3 ege | c3 ege | f2d e2c | Bdc BAG |\
g3 ege | c3 ege | f2d edc | d2g c3 H:|
fed edc | BAG cde | fed edc | {d}cBc d3 |\
e2g ^f2a | g^fe dcB | ABc BAG | ^FGA "_D.C."G3 |]
% - - - - - - - - - - Dance description - - - - - - - - - -
W:
W:Change sides, back again, down the mid: up
W:again, foot it & hands 4 round.
W:
T: William & Jonathan's Waltz
%R: waltz
B: "Twenty Four Country Dances with Figures for the Year 1809", Button & Whitaker, p.9 #2
F: http://www.vwml.org/browse/browse-collections-dance-tune-books/browse-button1809
Z: 2014 John Chambers <jc:trillian.mit.edu>
M: 3/8
L: 1/16
K: C
% - - - - - - - - - - - - - - - - - - - - - - - - - - - - -
(cd) |\
(e2f2d2) | c4(de) | (d2G2).G2 | (d2G2).G2 |\
(e2f2)d2 | c4(de) | .d2({e}dcde) | c4 :|
|: (cd) |\
.e2(e2f2) | g4(fg) | (a2f2).f2 | (g2e2).e2 |\
(ed)e2f2 | g4e2 | .f2({g}fefg) | e4 :|
|: (de) |\
(f2d2).d2 | (e2c2).c2 | d2(edcd) | (e2c2)(de) |\
(f2d2).d2 | (e2c2).c2 | .d2({e}dcde) | c4 :|
% - - - - - - - - - - Dance description - - - - - - - - - -
W:
W:The 1st & 2d Cu: set & change sides, back again,
W:down the mid: up again, Allemande & Swing corners.
W:
